assets/Garlic/Flat/garlic_flat.svg

<svg width="32" height="32" viewBox="0 0 32 32" fill="none" xmlns="http://www.w3.org/2000/svg">
<path d="M15.9853 28.2358C16.2453 28.2588 16.5106 28.2704 16.7809 28.27H22.8609C29.5109 28.27 32.5109 19.95 27.3809 15.71L23.1509 12.22C21.1909 10.61 20.0609 8.21 20.0609 5.67V4.17C20.0609 3.52 19.5409 3 18.8909 3H13.0808C12.4308 3 11.9108 3.52 11.9108 4.17V5.67C11.9108 8.21 10.7808 10.61 8.82082 12.22L4.59082 15.71C-0.539178 19.95 2.46082 28.27 9.11082 28.27H15.1908C15.4608 28.2704 15.7257 28.2588 15.9853 28.2358Z" fill="#FFCE7C"/>
<path d="M22.0508 14.09L19.7208 11.88C18.2208 10.45 17.3708 8.46 17.3708 6.39V3H14.5608V6.42C14.5608 8.5 13.7108 10.48 12.2008 11.91L9.91079 14.09C4.53079 19.21 8.15079 28.28 15.5808 28.28H16.3708C23.8108 28.28 27.4308 19.22 22.0508 14.09Z" fill="#FEEFC2"/>
</svg>

<svg xmlns="http://www.w3.org/2000/svg" width="32" height="32" fill="none"><path fill="#FFCE7C" d="M15.985 28.236c.26.023.526.034.796.034h6.08c6.65 0 9.65-8.32 4.52-12.56l-4.23-3.49a8.466 8.466 0 0 1-3.09-6.55v-1.5c0-.65-.52-1.17-1.17-1.17h-5.81c-.65 0-1.17.52-1.17 1.17v1.5c0 2.54-1.13 4.94-3.09 6.55l-4.23 3.49c-5.13 4.24-2.13 12.56 4.52 12.56h6.08c.27 0 .535-.011.794-.034Z"/><path fill="#FEEFC2" d="m22.05 14.09-2.33-2.21a7.595 7.595 0 0 1-2.35-5.49V3h-2.81v3.42c0 2.08-.85 4.06-2.36 5.49l-2.29 2.18c-5.38 5.12-1.76 14.19 5.67 14.19h.79c7.44 0 11.06-9.06 5.68-14.19Z"/></svg>
